assets/Pilot/Dark/Flat/pilot_flat_dark.svg

<svg width="32" height="32" viewBox="0 0 32 32" fill="none" xmlns="http://www.w3.org/2000/svg">
<path d="M9.00003 18.0159C9.87171 17.2961 10.8561 16.7081 11.9225 16.2821L16.0107 15.9646L20.1266 16.3025C21.1745 16.7274 22.1421 17.3094 23 18.0194L25.1001 24.0394L23 30.0015H8.99998L7.01895 24.0394L9.00003 18.0159Z" fill="#533566"/>
<path d="M18.7 16.1116H13.29V30.0016H18.7V16.1116Z" fill="#D3D3D3"/>
<path d="M14.3199 19.0014L15.9999 18.6714L17.6699 19.0014L16.6899 21.1114L18.0501 30.0016H13.9301L15.2999 21.1114L14.3199 19.0014Z" fill="#533566"/>
<path d="M16 15.3115H13.29V20.0515C13.29 20.3615 13.65 20.5415 13.9 20.3415L16 18.6715L18.1 20.3415C18.35 20.5415 18.71 20.3615 18.71 20.0515V15.3115H16V15.3115Z" fill="#F4F4F4"/>
<path d="M21.22 21.1215L19.86 19.7915C19.69 19.6215 19.81 19.3415 20.05 19.3415H21.1C21.31 19.3415 21.45 19.1215 21.36 18.9315L20.125 16.3086C19.8974 16.2138 19.6652 16.1395 19.4286 16.0639L19.39 16.0515H18.71V29.9915L21.45 22.1315C21.57 21.7715 21.48 21.3815 21.22 21.1215Z" fill="#321B41"/>
<path d="M13.29 16.0916H12.44C12.2996 16.1383 12.1653 16.1912 12.0277 16.2454C11.9889 16.2607 11.9495 16.2762 11.91 16.2916L10.64 18.9816C10.55 19.1716 10.69 19.3916 10.9 19.3916H11.95C12.19 19.3916 12.3 19.6816 12.14 19.8416L10.78 21.1716C10.52 21.4316 10.42 21.8216 10.55 22.1716L13.28 29.9916H13.29V16.0916Z" fill="#321B41"/>
<path d="M9 18.0015C6.57 20.0315 4.97994 23.0815 4.99994 26.5015V30.0015L8.99994 30L9 18.0015Z" fill="#321B41"/>
<path d="M23 18.0115V30.0015L27 30V26.5C27 23.09 25.44 20.0315 23 18.0115Z" fill="#321B41"/>
<path d="M16 18.5C14.8932 18.5 14 17.5359 14 16.3413V13.6587C14 12.4641 14.8932 11.5 16 11.5C17.1068 11.5 18 12.4641 18 13.6587V16.3413C18 17.5359 17.1068 18.5 16 18.5Z" fill="#452829"/>
<path d="M20.96 4.22999C21.48 4.40999 21.95 4.76999 22.25 5.28999C22.72 6.10999 22.65 7.09999 22.13 7.83999C21.95 8.09999 21.85 8.40999 21.85 8.71999V12.89C21.85 13.82 21.26 14.65 20.38 14.95L18.49 15.6V8.16999C18.35 8.01999 18.22 7.85999 18.11 7.66999C17.94 7.37999 17.85 7.06999 17.81 6.74999C17.72 6.75999 17.63 6.76999 17.53 6.76999C16.94 6.76999 16.41 6.54998 15.99 6.19999C15.58 6.55999 15.04 6.76999 14.45 6.76999C14.36 6.76999 14.26 6.75999 14.17 6.74999C14.14 7.05999 14.04 7.37999 13.87 7.66999C13.76 7.85999 13.64 8.02999 13.49 8.16999V15.59L11.6 14.94C10.72 14.63 10.13 13.81 10.13 12.88V8.70999C10.13 8.39999 10.03 8.08998 9.86004 7.82999C9.37004 7.11999 9.28004 6.15999 9.71004 5.35999C10 4.80999 10.48 4.41999 11.03 4.22999C11.62 4.02999 12.11 3.62999 12.44 3.10999L19.58 3.14999C19.89 3.65999 20.39 4.03999 20.96 4.22999Z" fill="black"/>
<path d="M12.7701 10.59C12.7701 11.5124 12.0224 12.26 11.1001 12.26C10.1777 12.26 9.43005 11.5124 9.43005 10.59C9.43005 9.66773 10.1777 8.92004 11.1001 8.92004C12.0224 8.92004 12.7701 9.66773 12.7701 10.59Z" fill="#4E3233"/>
<path d="M22.56 10.59C22.56 11.5124 21.8123 12.26 20.89 12.26C19.9677 12.26 19.22 11.5124 19.22 10.59C19.22 9.66773 19.9677 8.92004 20.89 8.92004C21.8123 8.92004 22.56 9.66773 22.56 10.59Z" fill="#4E3233"/>
<path d="M10.75 8.18812C10.8253 6.41802 12.3341 5 14.1775 5H15.4852C15.7669 5 16.0084 5.16585 16.119 5.40976C16.5214 6.27805 17.4167 6.82439 18.3925 6.82439H19.8311C20.6359 6.86341 21.2697 7.51707 21.2495 8.30731L21.2375 8.80981L20.9276 13.6439C20.6559 15.5659 18.976 17 16.974 17H15.0627C13.0708 17 11.3808 15.5659 11.1192 13.6439L10.75 8.18812Z" fill="#573739"/>
<path d="M12.18 10.28C12.33 9.65995 12.89 9.19995 13.56 9.19995C14.26 9.19995 14.83 9.68995 14.96 10.35C14.99 10.5 14.88 10.63 14.73 10.63H12.45C12.27 10.63 12.13 10.45 12.18 10.28Z" fill="white"/>
<path d="M19.83 10.28C19.68 9.65995 19.12 9.19995 18.45 9.19995C17.75 9.19995 17.18 9.68995 17.05 10.35C17.02 10.5 17.13 10.63 17.28 10.63H19.56C19.74 10.63 19.87 10.46 19.83 10.28Z" fill="white"/>
<path d="M12.86 10.39C12.86 9.88998 13.27 9.47998 13.77 9.47998C14.28 9.47998 14.69 9.88998 14.68 10.39C14.68 10.47 14.67 10.55 14.65 10.63H12.89C12.87 10.55 12.86 10.47 12.86 10.39Z" fill="#7D4533"/>
<path d="M19.15 10.39C19.15 9.88998 18.74 9.47998 18.24 9.47998C17.73 9.47998 17.33 9.88998 17.33 10.39C17.33 10.47 17.34 10.55 17.36 10.63H19.12C19.14 10.55 19.15 10.47 19.15 10.39Z" fill="#7D4533"/>
<path d="M13.77 9.87C14.06 9.87 14.29 10.1 14.29 10.39C14.29 10.48 14.27 10.56 14.23 10.63H13.31C13.27 10.56 13.25 10.48 13.25 10.39C13.25 10.1 13.48 9.87 13.77 9.87Z" fill="black"/>
<path d="M18.24 9.87C17.95 9.87 17.72 10.1 17.72 10.39C17.72 10.48 17.74 10.56 17.78 10.63H18.7C18.74 10.56 18.76 10.48 18.76 10.39C18.76 10.1 18.53 9.87 18.24 9.87Z" fill="black"/>
<path d="M13.62 10.02C13.62 10.1084 13.5484 10.18 13.46 10.18C13.3717 10.18 13.3 10.1084 13.3 10.02C13.3 9.93162 13.3717 9.85999 13.46 9.85999C13.5484 9.85999 13.62 9.93162 13.62 10.02Z" fill="white"/>
<path d="M18.12 10.02C18.12 10.1084 18.0484 10.18 17.96 10.18C17.8717 10.18 17.8 10.1084 17.8 10.02C17.8 9.93162 17.8717 9.85999 17.96 9.85999C18.0484 9.85999 18.12 9.93162 18.12 10.02Z" fill="white"/>
<path d="M15.6541 10.2897L15.1583 12.0282C15.0554 12.384 15.2986 12.75 15.6447 12.75H16.3743C16.7204 12.75 16.9636 12.384 16.8607 12.0282L16.365 10.2897C16.2621 9.90342 15.7663 9.90342 15.6541 10.2897Z" fill="#3D2123"/>
<path d="M16.0005 13.7058C15.45 13.7058 14.9301 13.567 14.4918 13.3214C14.3389 13.2359 14.186 13.4175 14.2777 13.567C14.6447 14.1543 15.2767 14.5494 16.0005 14.5494C16.7243 14.5494 17.3563 14.1543 17.7233 13.567C17.8151 13.4175 17.652 13.2466 17.5093 13.3214C17.0607 13.567 16.551 13.7058 16.0005 13.7058Z" fill="#290118"/>
<path d="M12.3451 8.42675C12.3916 8.45985 12.4473 8.4776 12.5044 8.47752C12.5662 8.47719 12.6261 8.45605 12.6744 8.41752C13.1162 8.1244 13.6481 7.99852 14.1744 8.06252C14.21 8.0671 14.2461 8.06448 14.2806 8.0548C14.3151 8.04513 14.3473 8.0286 14.3753 8.0062C14.4033 7.9838 14.4265 7.956 14.4436 7.92444C14.4606 7.89288 14.4711 7.85822 14.4744 7.82252C14.4817 7.75118 14.4608 7.67981 14.4161 7.62372C14.3715 7.56763 14.3066 7.5313 14.2354 7.52252C13.5663 7.43577 12.8888 7.60156 12.3354 7.98752C12.2904 8.02264 12.2575 8.07095 12.2413 8.1257C12.225 8.18044 12.2263 8.23888 12.245 8.29286C12.2636 8.34683 12.2986 8.39364 12.3451 8.42675Z" fill="black"/>
<path d="M19.3464 8.42152C19.3941 8.45778 19.4524 8.47745 19.5124 8.47752C19.5695 8.47795 19.6264 8.46044 19.673 8.42746C19.7197 8.39449 19.7548 8.3477 19.7735 8.2937C19.7921 8.2397 19.7934 8.1812 19.7771 8.12645C19.7607 8.0717 19.7276 8.02346 19.6824 7.98852C19.1283 7.60389 18.4515 7.4379 17.7824 7.52252C17.7119 7.53297 17.6483 7.57045 17.605 7.62703C17.5617 7.6836 17.5421 7.75482 17.5505 7.82557C17.5588 7.89632 17.5943 7.96105 17.6496 8.00603C17.7048 8.05101 17.7754 8.07271 17.8464 8.06652C18.3728 8.00144 18.905 8.12741 19.3464 8.42152Z" fill="black"/>
<path d="M15.9973 2.00136C16.1674 1.99743 19.1302 1.92907 21.73 3.55151C22.72 4.16151 22.92 5.51151 22.12 6.34151L21.442 7.05937C21.4447 7.06006 21.4474 7.06076 21.45 7.06146L21.05 7.53146C20.31 8.40146 19.23 8.90146 18.09 8.90146H13.9C12.76 8.90146 11.68 8.40146 10.95 7.53146L10.5501 7.06151H10.54L9.85998 6.34151C9.05998 5.50151 9.24998 4.14151 10.25 3.54151C12.8378 1.99878 15.9209 2.00145 15.9892 2.00151C15.9901 2.00151 15.9933 2.00145 15.9973 2.00136Z" fill="#533566"/>
<path d="M16.05 5.52148C16.44 5.52148 18.32 5.54148 20.61 6.03148C21.1 6.13148 21.45 6.56147 21.45 7.06146C18.53 6.30146 16 6.33146 16 6.33146C16 6.33146 13.47 6.30146 10.55 7.06146C10.5501 6.56147 10.9001 6.13148 11.39 6.03148C13.68 5.55148 15.55 5.52148 15.95 5.52148H16.05Z" fill="#FCD53F"/>
<path d="M16.1041 4.27148H17.5041C17.5841 4.27148 17.6441 4.2305 17.6841 4.15878L18.2341 3.18542C18.2741 3.1137 18.2241 3.02148 18.1441 3.02148H16.7441C16.6641 3.02148 16.6041 3.06247 16.5641 3.13419L16.0141 4.10755C15.9741 4.17927 16.0241 4.27148 16.1041 4.27148Z" fill="#F9C23C"/>
<path d="M15.8909 4.28149H14.4864C14.4062 4.28149 14.346 4.24017 14.3058 4.16786L13.7641 3.19678C13.724 3.12447 13.7742 3.03149 13.8544 3.03149H15.2589C15.3391 3.03149 15.3993 3.07282 15.4394 3.14513L15.9912 4.12654C16.0213 4.18852 15.9711 4.28149 15.8909 4.28149Z" fill="#F9C23C"/>
<path d="M22.72 19.7815H23.36C23.49 19.7815 23.6 19.8915 23.61 20.0315C23.6 20.1615 23.49 20.2515 23.36 20.2515H23.21C23.17 20.2515 23.13 20.2715 23.11 20.3115L23.02 20.5115C22.96 20.6315 22.84 20.7115 22.7 20.7115H21.63C21.49 20.7115 21.37 20.6315 21.31 20.5115L21.22 20.3115C21.2 20.2715 21.16 20.2515 21.12 20.2515H20.96C20.83 20.2515 20.72 20.1315 20.73 20.0015C20.74 19.8715 20.85 19.7815 20.98 19.7815H21.6C21.83 19.7815 22.04 19.9115 22.14 20.1115C22.14 20.1315 22.17 20.1315 22.18 20.1115C22.28 19.9115 22.49 19.7815 22.72 19.7815Z" fill="#F9C23C"/>
<path d="M16 5.33154C16.4832 5.33154 16.875 4.93979 16.875 4.45654C16.875 3.97329 16.4832 3.58154 16 3.58154C15.5168 3.58154 15.125 3.97329 15.125 4.45654C15.125 4.93979 15.5168 5.33154 16 5.33154Z" fill="#FFB02E"/>
<path d="M16.0577 3.93705L16.1615 4.16417C16.171 4.18392 16.1899 4.19379 16.2087 4.20367L16.4447 4.23329C16.4919 4.24317 16.5203 4.30241 16.4825 4.34191L16.3126 4.51965C16.2937 4.5394 16.2937 4.55915 16.2937 4.5789L16.3598 4.81589C16.3787 4.86526 16.322 4.91464 16.2748 4.89489L16.0294 4.77639C16.0105 4.76652 15.9916 4.76652 15.9728 4.77639L15.7273 4.89489C15.6801 4.91464 15.6235 4.87514 15.6424 4.81589L15.7084 4.5789C15.7179 4.55915 15.7084 4.52953 15.6896 4.51965L15.5196 4.34191C15.4819 4.30241 15.5008 4.24317 15.5574 4.23329L15.7934 4.20367C15.8123 4.20367 15.8312 4.18392 15.8406 4.16417L15.9444 3.93705C15.9728 3.88768 16.0294 3.88768 16.0577 3.93705Z" fill="#FFF478"/>
</svg>

<svg xmlns="http://www.w3.org/2000/svg" width="32" height="32" fill="none"><path fill="#533566" d="M9 18.016a11 11 0 0 1 2.922-1.734l4.089-.317 4.116.337A10.978 10.978 0 0 1 23 18.02l2.1 6.02-2.1 5.962H9L7.019 24.04 9 18.016Z"/><path fill="#D3D3D3" d="M18.7 16.112h-5.41v13.89h5.41v-13.89Z"/><path fill="#533566" d="m14.32 19.001 1.68-.33 1.67.33-.98 2.11 1.36 8.89h-4.12l1.37-8.89-.98-2.11Z"/><path fill="#F4F4F4" d="M16 15.312h-2.71v4.74c0 .31.36.49.61.29l2.1-1.67 2.1 1.67c.25.2.61.02.61-.29v-4.74H16Z"/><path fill="#321B41" d="m21.22 21.122-1.36-1.33a.262.262 0 0 1 .19-.45h1.05c.21 0 .35-.22.26-.41l-1.235-2.623a8.612 8.612 0 0 0-.696-.245l-.039-.012h-.68v13.94l2.74-7.86c.12-.36.03-.75-.23-1.01ZM13.29 16.092h-.85a8.064 8.064 0 0 0-.53.2l-1.27 2.69c-.09.19.05.41.26.41h1.05c.24 0 .35.29.19.45l-1.36 1.33c-.26.26-.36.65-.23 1l2.73 7.82h.01v-13.9ZM9 18.002c-2.43 2.03-4.02 5.08-4 8.5v3.5L9 30V18.002ZM23 18.012v11.99L27 30v-3.5c0-3.41-1.56-6.468-4-8.488Z"/><path fill="#452829" d="M16 18.5c-1.107 0-2-.964-2-2.159V13.66c0-1.195.893-2.159 2-2.159s2 .964 2 2.159v2.682c0 1.195-.893 2.159-2 2.159Z"/><path fill="#000" d="M20.96 4.23c.52.18.99.54 1.29 1.06.47.82.4 1.81-.12 2.55-.18.26-.28.57-.28.88v4.17c0 .93-.59 1.76-1.47 2.06l-1.89.65V8.17a2.373 2.373 0 0 1-.68-1.42c-.09.01-.18.02-.28.02-.59 0-1.12-.22-1.54-.57a2.32 2.32 0 0 1-1.82.55c-.03.31-.13.63-.3.92-.11.19-.23.36-.38.5v7.42l-1.89-.65a2.185 2.185 0 0 1-1.47-2.06V8.71c0-.31-.1-.62-.27-.88-.49-.71-.58-1.67-.15-2.47.29-.55.77-.94 1.32-1.13.59-.2 1.08-.6 1.41-1.12l7.14.04c.31.51.81.89 1.38 1.08Z"/><path fill="#4E3233" d="M12.77 10.59a1.67 1.67 0 1 1-3.34 0 1.67 1.67 0 0 1 3.34 0ZM22.56 10.59a1.67 1.67 0 1 1-3.34 0 1.67 1.67 0 0 1 3.34 0Z"/><path fill="#573739" d="M10.75 8.188C10.825 6.418 12.334 5 14.178 5h1.307c.282 0 .523.166.634.41.402.868 1.298 1.414 2.273 1.414h1.44c.804.04 1.438.693 1.418 1.483l-.012.503-.31 4.834C20.656 15.566 18.976 17 16.974 17h-1.911c-1.992 0-3.682-1.434-3.944-3.356l-.369-5.456Z"/><path fill="#fff" d="M12.18 10.28c.15-.62.71-1.08 1.38-1.08.7 0 1.27.49 1.4 1.15a.23.23 0 0 1-.23.28h-2.28c-.18 0-.32-.18-.27-.35ZM19.83 10.28c-.15-.62-.71-1.08-1.38-1.08-.7 0-1.27.49-1.4 1.15-.03.15.08.28.23.28h2.28c.18 0 .31-.17.27-.35Z"/><path fill="#7D4533" d="M12.86 10.39c0-.5.41-.91.91-.91a.9.9 0 0 1 .91.91c0 .08-.01.16-.03.24h-1.76a.986.986 0 0 1-.03-.24ZM19.15 10.39c0-.5-.41-.91-.91-.91-.51 0-.91.41-.91.91 0 .08.01.16.03.24h1.76c.02-.08.03-.16.03-.24Z"/><path fill="#000" d="M13.77 9.87a.516.516 0 0 1 .46.76h-.92a.516.516 0 0 1 .46-.76ZM18.24 9.87a.516.516 0 0 0-.46.76h.92a.516.516 0 0 0-.46-.76Z"/><path fill="#fff" d="M13.62 10.02a.16.16 0 1 1-.32 0 .16.16 0 0 1 .32 0ZM18.12 10.02a.16.16 0 1 1-.32 0 .16.16 0 0 1 .32 0Z"/><path fill="#3D2123" d="m15.654 10.29-.496 1.738c-.103.356.14.722.487.722h.73c.345 0 .589-.366.486-.722l-.496-1.738c-.103-.387-.599-.387-.71 0Z"/><path fill="#290118" d="M16 13.706a3.09 3.09 0 0 1-1.508-.385c-.153-.085-.306.097-.214.246.367.587.999.982 1.722.982.724 0 1.356-.395 1.723-.982.092-.15-.071-.32-.214-.246a3.12 3.12 0 0 1-1.509.385Z"/><path fill="#000" d="M12.345 8.427a.274.274 0 0 0 .33-.01 2.227 2.227 0 0 1 1.5-.354.267.267 0 0 0 .3-.24.274.274 0 0 0-.24-.3 2.712 2.712 0 0 0-1.9.465.274.274 0 0 0 .01.439ZM19.346 8.422a.275.275 0 0 0 .327.005.273.273 0 0 0 .01-.438 2.731 2.731 0 0 0-1.9-.466.274.274 0 0 0 .063.544 2.215 2.215 0 0 1 1.5.355Z"/><path fill="#533566" d="M15.997 2.001c.17-.004 3.133-.072 5.733 1.55.99.61 1.19 1.96.39 2.79l-.678.718.008.002-.4.47c-.74.87-1.82 1.37-2.96 1.37H13.9c-1.14 0-2.22-.5-2.95-1.37l-.4-.47h-.01l-.68-.72c-.8-.84-.61-2.2.39-2.8 2.588-1.542 5.67-1.54 5.74-1.54h.007Z"/><path fill="#FCD53F" d="M16.05 5.521c.39 0 2.27.02 4.56.51.49.1.84.53.84 1.03-2.92-.76-5.45-.73-5.45-.73s-2.53-.03-5.45.73c0-.5.35-.93.84-1.03 2.29-.48 4.16-.51 4.56-.51h.1Z"/><path fill="#F9C23C" d="M16.104 4.271h1.4c.08 0 .14-.04.18-.112l.55-.974c.04-.071-.01-.164-.09-.164h-1.4c-.08 0-.14.041-.18.113l-.55.974c-.04.071.01.163.09.163Z"/><path fill="#F9C23C" d="M15.89 4.281h-1.404c-.08 0-.14-.04-.18-.113l-.542-.971c-.04-.073.01-.166.09-.166h1.405c.08 0 .14.042.18.114l.552.982c.03.062-.02.154-.1.154ZM22.72 19.782h.64c.13 0 .24.11.25.25-.01.13-.12.22-.25.22h-.15a.11.11 0 0 0-.1.06l-.09.2c-.06.12-.18.2-.32.2h-1.07c-.14 0-.26-.08-.32-.2l-.09-.2a.11.11 0 0 0-.1-.06h-.16c-.13 0-.24-.12-.23-.25.01-.13.12-.22.25-.22h.62c.23 0 .44.13.54.33 0 .02.03.02.04 0 .1-.2.31-.33.54-.33Z"/><path fill="#FFB02E" d="M16 5.332a.875.875 0 1 0 0-1.75.875.875 0 0 0 0 1.75Z"/><path fill="#FFF478" d="m16.058 3.937.104.227c.009.02.028.03.047.04l.236.03c.047.01.075.068.038.108l-.17.178c-.02.02-.02.04-.02.059l.067.237c.019.05-.038.099-.085.079l-.246-.119a.058.058 0 0 0-.056 0l-.246.119c-.047.02-.104-.02-.085-.08l.066-.236c.01-.02 0-.05-.018-.06l-.17-.177c-.038-.04-.02-.099.037-.109l.236-.03c.02 0 .038-.02.048-.039l.103-.227c.029-.05.085-.05.114 0Z"/></svg>
